packages/vapor/resources/icons/svg/source-documentum.svg

<svg height="32" viewBox="0 0 32 32" width="32" xmlns="http://www.w3.org/2000/svg" xmlns:xlink="http://www.w3.org/1999/xlink"><defs><rect id="a" height="32" rx="2" width="32"/><mask id="b" fill="#fff"><use fill="#fff" fill-rule="evenodd" xlink:href="#a"/></mask></defs><g fill="none" fill-rule="evenodd"><use fill="#f6f6f6" xlink:href="#a"/><g mask="url(#b)"><g transform="translate(4 4)"><path d="m21.5636923 13.2036h-3.488c-.4812308-.0018-1.5193846-.1158-2.2898461-.3408-.2578462-.075-.9446154-.2754-1.6098462-.6828-.6184615-.3786-1.1889231-.9006-1.7550769-1.602-.8006154-.993-1.2929231-1.947-1.5741539-3.1938-.1335384-.5928-.1655384-1.1172-.2030769-1.8774-.016-.3354-.1316923-1.0662-.1316923-1.0662-.4793846-2.4174-2.65907692-4.245-5.27876923-4.245-2.97046154 0-5.37846154 2.3484-5.37846154 5.2446 0 2.565 1.88984615 4.6962 4.38461539 5.151 0 0 .89784615.1338 1.34523076.1398 1.71507693.0228 3.34892308.5052 4.85169232 1.653 1.0849231.8286 2.6024615 2.0898 2.7790769 5.493v3.4662c0 1.2924 1.0744616 2.34 2.3993846 2.34h5.9489231c1.3261539 0 2.4-1.0476 2.4-2.34v-5.7996c0-1.2924-1.0738461-2.34-2.4-2.34" fill="#005795"/><g fill="#1a1918"><path d="m5.27753846 23.7792c2.97107692 0 5.37907694-2.3478 5.37907694-5.244 0-2.8968-2.40800002-5.2446-5.37907694-5.2446-2.97046154 0-5.37846154 2.3478-5.37846154 5.2446 0 2.8962 2.408 5.244 5.37846154 5.244"/><path d="m23.968 5.5092c0-2.8956-2.408-5.244-5.3784615-5.244-2.971077 0-5.3784616 2.3484-5.3784616 5.244 0 2.8968 2.4073846 5.2446 5.3784616 5.2446 2.9704615 0 5.3784615-2.3478 5.3784615-5.2446"/></g></g></g><path d="m29 0-21 32h24v-32z" fill="#000" opacity=".102204"/></g></svg>

<?xml version="1.0" encoding="UTF-8" standalone="no"?>
<svg width="32px" height="32px" viewBox="0 0 32 32" version="1.1" xmlns="http://www.w3.org/2000/svg" xmlns:xlink="http://www.w3.org/1999/xlink" xmlns:sketch="http://www.bohemiancoding.com/sketch/ns">
    <defs>
        <rect id="path-1" x="0" y="0" width="32" height="32" rx="2"></rect>
    </defs>
    <g id="Sources-Icons-32px" stroke="none" stroke-width="1" fill="none" fill-rule="evenodd" sketch:type="MSPage">
        <g id="Documentum" sketch:type="MSArtboardGroup">
            <g id="source-documentum" sketch:type="MSLayerGroup">
                <mask id="mask-2" sketch:name="BG" fill="white">
                    <use xlink:href="#path-1"></use>
                </mask>
                <use id="BG" fill="#F6F6F6" sketch:type="MSShapeGroup" xlink:href="#path-1"></use>
                <g id="Documentum" mask="url(#mask-2)" sketch:type="MSShapeGroup">
                    <g transform="translate(4.000000, 4.000000)">
                        <path d="M21.5636923,13.2036 L18.0756923,13.2036 C17.5944615,13.2018 16.5563077,13.0878 15.7858462,12.8628 C15.528,12.7878 14.8412308,12.5874 14.176,12.18 C13.5575385,11.8014 12.9870769,11.2794 12.4209231,10.578 C11.6203077,9.585 11.128,8.631 10.8467692,7.3842 C10.7132308,6.7914 10.6812308,6.267 10.6436923,5.5068 C10.6276923,5.1714 10.512,4.4406 10.512,4.4406 C10.0326154,2.0232 7.85292308,0.1956 5.23323077,0.1956 C2.26276923,0.1956 -0.145230769,2.544 -0.145230769,5.4402 C-0.145230769,8.0052 1.74461538,10.1364 4.23938462,10.5912 C4.23938462,10.5912 5.13723077,10.725 5.58461538,10.731 C7.29969231,10.7538 8.93353846,11.2362 10.4363077,12.384 C11.5212308,13.2126 13.0387692,14.4738 13.2153846,17.877 L13.2153846,21.3432 C13.2153846,22.6356 14.2898462,23.6832 15.6147692,23.6832 L21.5636923,23.6832 C22.8898462,23.6832 23.9636923,22.6356 23.9636923,21.3432 L23.9636923,15.5436 C23.9636923,14.2512 22.8898462,13.2036 21.5636923,13.2036" id="Fill-2" fill="#005795"></path>
                        <path d="M5.27753846,23.7792 C8.24861538,23.7792 10.6566154,21.4314 10.6566154,18.5352 C10.6566154,15.6384 8.24861538,13.2906 5.27753846,13.2906 C2.30707692,13.2906 -0.100923077,15.6384 -0.100923077,18.5352 C-0.100923077,21.4314 2.30707692,23.7792 5.27753846,23.7792" id="Fill-3" fill="#1A1918"></path>
                        <path d="M23.968,5.5092 C23.968,2.6136 21.56,0.2652 18.5895385,0.2652 C15.6184615,0.2652 13.2110769,2.6136 13.2110769,5.5092 C13.2110769,8.406 15.6184615,10.7538 18.5895385,10.7538 C21.56,10.7538 23.968,8.406 23.968,5.5092" id="Fill-4" fill="#1A1918"></path>
                    </g>
                </g>
                <path d="M29,0 L8,32 L32,32 L32,0 L29,0 Z" id="shadow" opacity="0.102203825" fill="#000000" sketch:type="MSShapeGroup" mask="url(#mask-2)"></path>
            </g>
        </g>
    </g>
</svg>
